X: 1
T:Allemande
C:Johann Hermann Schein
O:Germany
R:Allemande
Z:Transcribed by Frank Nordberg - http://www.musicaviva.com

V:1 Program 1 6 %Harpsichord
V:2 Program 1 6 bass %Harpsichord
m: Mn4 = o3/4n//o// n//o//n//-n2
m: Pn4 = m3/4n//m// n//m//n//-n2
M:C
L:1/8
Q:1/4=144
K:G
V:1
GA B2 A2 dc|B2 AG A4|AB c2 B2 ed|c2 BA B2 A2|
V:2
G,4 F,4|G,4 D,4|A,4 ^G,4|A,4 E,2 F,2|

V:1
B^c d2 d2 c2|d4 d4::d2 =c2 MB4|c2 B2 MA4|
V:2
G,2 D,2 A,2 A,,2|D,4 D,4::G,4 G,4|C,4 D,4|

V:1
BA G2 AG F2|GF E2 D2 D2|EF G2 G2 F2|PG4 G4:|
V:2
G,,4 D,4|G,,2 C,2 G,,2 z2|C,2 G,,2 D,2 D,,2|G,,4 G,,4:|

